;FLAVOR:Marlin
;TIME:3937
;Filament used: 1.53157m
;Layer height: 0.16
;MINX:89.902
;MINY:91.952
;MINZ:0.2
;MAXX:145.098
;MAXY:150.359
;MAXZ:34.92
;Generated with Cura_SteamEngine 4.13.1
M140 S60
M105
M190 S60
M104 S200
M105
M109 S200
M82 ;absolute extrusion mode
M201 X500.00 Y500.00 Z100.00 E5000.00 ;Setup machine max acceleration
M203 X500.00 Y500.00 Z10.00 E50.00 ;Setup machine max feedrate
M204 P500.00 R1000.00 T500.00 ;Setup Print/Retract/Travel acceleration
M205 X8.00 Y8.00 Z0.40 E5.00 ;Setup Jerk
M220 S100 ;Reset Feedrate
M221 S100 ;Reset Flowrate

G28 ;Home

G92 E0 ;Reset Extruder
G1 Z2.0 F3000 ;Move Z Axis up
G1 X10.1 Y20 Z0.28 F5000.0 ;Move to start position
G1 X10.1 Y200.0 Z0.28 F1500.0 E15 ;Draw the first line
G1 X10.4 Y200.0 Z0.28 F5000.0 ;Move to side a little
G1 X10.4 Y20 Z0.28 F1500.0 E30 ;Draw the second line
G92 E0 ;Reset Extruder
G1 Z2.0 F3000 ;Move Z Axis up

G92 E0
G92 E0
G1 F1500 E-6.5
;LAYER_COUNT:193
;LAYER:0
M107
G0 F6000 X93.259 Y95.495 Z0.2
;TYPE:SKIRT
G1 F1500 E0
G1 F1200 X93.933 Y94.843 E0.03119
G1 X94.659 Y94.25 E0.06237
G1 X95.434 Y93.721 E0.09358
G1 X96.251 Y93.26 E0.12478
G1 X96.979 Y92.922 E0.15147
G1 X97.193 Y92.832 E0.1592
G1 X98.072 Y92.506 E0.19038
G1 X98.976 Y92.256 E0.22157
G1 X99.898 Y92.083 E0.25277
G1 X101.247 Y91.974 E0.29779
G1 X102.244 Y91.955 E0.33095
G1 X102.441 Y91.953 E0.33751
G1 X103.489 Y91.953 E0.37236
G1 X104.163 Y91.963 E0.39478
G1 X105.398 Y92.051 E0.43596
G1 X106.152 Y92.148 E0.46125
G1 X108.717 Y92.439 E0.54711
G1 X111.226 Y92.651 E0.63085
G1 X113.748 Y92.794 E0.71487
G1 X116.271 Y92.864 E0.79882
G1 X118.795 Y92.864 E0.88277
G1 X121.281 Y92.793 E0.96549
G1 X123.813 Y92.648 E1.04984
G1 X126.314 Y92.435 E1.13332
G1 X128.846 Y92.147 E1.21808
G1 X129.378 Y92.076 E1.23593
G1 X129.706 Y92.038 E1.24691
G1 X130.563 Y91.973 E1.2755
G1 X130.805 Y91.964 E1.28356
G1 X131.097 Y91.957 E1.29327
G1 X131.487 Y91.953 E1.30624
G1 X132.818 Y91.952 E1.35051
G1 X133.633 Y91.962 E1.37762
G1 X134.569 Y92.015 E1.4088
G1 X135.498 Y92.147 E1.44001
G1 X136.412 Y92.358 E1.47121
G1 X137.288 Y92.641 E1.50183
G1 X137.551 Y92.738 E1.51115
G1 X138.417 Y93.099 E1.54236
G1 X139.248 Y93.533 E1.57354
G1 X140.039 Y94.037 E1.60473
G1 X140.785 Y94.606 E1.63594
G1 X141.571 Y95.328 E1.67144
G1 X141.731 Y95.49 E1.67901
G1 X142.361 Y96.185 E1.71021
G1 X142.93 Y96.931 E1.74142
G1 X143.433 Y97.723 E1.77262
G1 X143.679 Y98.173 E1.78968
G1 X143.758 Y98.326 E1.79541
G1 X144.152 Y99.177 E1.8266
G1 X144.547 Y100.303 E1.86629
G1 X144.615 Y100.537 E1.87439
G1 X144.838 Y101.448 E1.90559
G1 X144.955 Y102.148 E1.92919
G1 X144.989 Y102.402 E1.93771
G1 X145.078 Y103.438 E1.9723
G1 X145.089 Y103.815 E1.98484
G1 X145.097 Y104.476 E2.00683
G1 X145.098 Y125.681 E2.71211
G1 X145.086 Y126.523 E2.74012
G1 X145.067 Y127.028 E2.75693
G1 X145.045 Y127.393 E2.76909
G1 X145.005 Y127.883 E2.78544
G1 X144.981 Y128.111 E2.79307
G1 X144.89 Y128.778 E2.81546
G1 X144.833 Y129.118 E2.82692
G1 X144.742 Y129.596 E2.84311
G1 X144.533 Y130.458 E2.87261
G1 X144.378 Y131.001 E2.89139
G1 X144.177 Y131.633 E2.91345
G1 X144.082 Y131.903 E2.92297
G1 X143.813 Y132.593 E2.9476
G1 X143.679 Y132.905 E2.95889
G1 X143.375 Y133.555 E2.98276
G1 X143.151 Y133.995 E2.99918
G1 X142.795 Y134.639 E3.02365
G1 X142.659 Y134.867 E3.03248
G1 X142.24 Y135.516 E3.05818
G1 X142.027 Y135.822 E3.07058
G1 X141.617 Y136.373 E3.09342
G1 X141.318 Y136.75 E3.10943
G1 X140.836 Y137.318 E3.1342
G1 X140.604 Y137.573 E3.14567
G1 X138.581 Y139.728 E3.24398
G1 X136.917 Y141.604 E3.32738
G1 X135.285 Y143.554 E3.41196
G1 X133.671 Y145.597 E3.49855
G1 X133.259 Y146.124 E3.5208
G1 X132.65 Y146.838 E3.55202
G1 X131.983 Y147.497 E3.5832
G1 X131.262 Y148.097 E3.6144
G1 X130.493 Y148.633 E3.64558
G1 X129.681 Y149.102 E3.67676
G1 X128.831 Y149.5 E3.70798
G1 X127.951 Y149.824 E3.73917
G1 X127.047 Y150.072 E3.77035
G1 X126.125 Y150.242 E3.80153
G1 X124.876 Y150.345 E3.84322
G1 X124.488 Y150.355 E3.85612
G1 X124.207 Y150.359 E3.86547
G1 X116.039 Y150.359 E4.13714
G1 X110.952 Y150.358 E4.30633
G1 X110.25 Y150.348 E4.32969
G1 X109.314 Y150.295 E4.36087
G1 X108.386 Y150.162 E4.39205
G1 X107.472 Y149.95 E4.42325
G1 X106.579 Y149.662 E4.45446
G1 X105.715 Y149.298 E4.48564
G1 X104.884 Y148.862 E4.51686
G1 X104.094 Y148.357 E4.54804
G1 X103.35 Y147.787 E4.57922
G1 X102.657 Y147.155 E4.61041
G1 X102.02 Y146.466 E4.64162
G1 X101.656 Y146.014 E4.66092
G1 X101.484 Y145.789 E4.67034
G1 X99.933 Y143.815 E4.75384
G1 X98.292 Y141.843 E4.83917
G1 X96.629 Y139.958 E4.92277
G1 X95.278 Y138.497 E4.98896
G1 X94.305 Y137.468 E5.03606
G1 X93.852 Y136.958 E5.05875
G1 X93.666 Y136.735 E5.06841
G1 X93.204 Y136.142 E5.09341
G1 X92.936 Y135.772 E5.10861
G1 X92.509 Y135.136 E5.13408
G1 X92.385 Y134.937 E5.14188
G1 X92.052 Y134.364 E5.16393
G1 X91.783 Y133.868 E5.18269
G1 X91.442 Y133.185 E5.20808
G1 X91.365 Y133.016 E5.21426
G1 X91.116 Y132.425 E5.23559
G1 X90.95 Y131.996 E5.25089
G1 X90.711 Y131.311 E5.27502
G1 X90.604 Y130.969 E5.28694
G1 X90.408 Y130.263 E5.31131
G1 X90.34 Y129.981 E5.32096
G1 X90.19 Y129.247 E5.34587
G1 X90.116 Y128.812 E5.36055
G1 X90.022 Y128.133 E5.38335
G1 X89.988 Y127.814 E5.39402
G1 X89.94 Y127.212 E5.4141
G1 X89.927 Y126.959 E5.42253
G1 X89.917 Y126.675 E5.43198
G1 X89.906 Y126.243 E5.44636
G1 X89.902 Y125.964 E5.45564
G1 X89.902 Y104.443 E6.17143
G1 X89.912 Y103.767 E6.19391
G1 X89.942 Y103.102 E6.21605
G1 X89.958 Y102.89 E6.22313
G1 X90.122 Y101.657 E6.2645
G1 X90.155 Y101.484 E6.27035
G1 X90.37 Y100.571 E6.30155
G1 X90.594 Y99.865 E6.32619
G1 X90.676 Y99.634 E6.33434
G1 X91.027 Y98.765 E6.36551
G1 X91.451 Y97.928 E6.39672
G1 X91.944 Y97.131 E6.42789
G1 X92.442 Y96.455 E6.45581
G1 X92.643 Y96.203 E6.46654
G1 X93.259 Y95.495 E6.49775
G0 F6000 X93.561 Y95.758
G1 F1200 X94.224 Y95.119 E6.52838
G1 X94.939 Y94.54 E6.55898
G1 X95.703 Y94.025 E6.58962
G1 X96.508 Y93.578 E6.62025
G1 X97.134 Y93.291 E6.64315
G1 X97.348 Y93.201 E6.65087
G1 X98.211 Y92.881 E6.68149
G1 X99.099 Y92.638 E6.71211
G1 X100.005 Y92.472 E6.74274
G1 X101.255 Y92.374 E6.78444
G1 X102.442 Y92.353 E6.82393
G1 X103.483 Y92.353 E6.85855
G1 X104.157 Y92.363 E6.88097
G1 X105.348 Y92.448 E6.92069
G1 X106.132 Y92.548 E6.94697
G1 X108.674 Y92.837 E7.03207
G1 X111.206 Y93.052 E7.11658
G1 X113.713 Y93.193 E7.2001
G1 X116.26 Y93.264 E7.28485
G1 X118.772 Y93.264 E7.36839
G1 X121.313 Y93.191 E7.45294
G1 X123.836 Y93.047 E7.537
G1 X126.361 Y92.832 E7.62128
G1 X128.902 Y92.543 E7.70634
G1 X129.424 Y92.473 E7.72386
G1 X129.752 Y92.435 E7.73484
G1 X130.578 Y92.372 E7.76239
G1 X130.82 Y92.363 E7.77045
G1 X131.101 Y92.357 E7.7798
G1 X131.487 Y92.353 E7.79263
G1 X132.818 Y92.352 E7.8369
G1 X133.627 Y92.362 E7.86381
G1 X134.547 Y92.415 E7.89446
G1 X135.458 Y92.547 E7.92508
G1 X136.354 Y92.757 E7.95569
G1 X137.15 Y93.016 E7.98353
G1 X137.413 Y93.113 E7.99285
G1 X138.262 Y93.469 E8.02347
G1 X139.077 Y93.897 E8.05409
G1 X139.852 Y94.394 E8.08471
G1 X140.581 Y94.957 E8.11535
G1 X141.287 Y95.609 E8.14731
G1 X141.447 Y95.771 E8.15488
G1 X142.065 Y96.454 E8.18552
G1 X142.621 Y97.187 E8.21612
G1 X143.324 Y98.357 E8.26152
G1 X143.403 Y98.51 E8.26725
G1 X143.789 Y99.345 E8.29784
G1 X144.163 Y100.415 E8.33554
G1 X144.231 Y100.649 E8.34365
G1 X144.449 Y101.543 E8.37425
G1 X144.558 Y102.201 E8.39644
G1 X144.592 Y102.455 E8.40496
G1 X144.678 Y103.454 E8.43831
G1 X144.689 Y103.82 E8.45049
G1 X144.697 Y104.476 E8.47231
G1 X144.698 Y125.675 E9.17739
G1 X144.686 Y126.517 E9.2054
G1 X144.668 Y127.004 E9.22161
G1 X144.646 Y127.369 E9.23377
G1 X144.607 Y127.841 E9.24952
G1 X144.583 Y128.069 E9.25714
G1 X144.495 Y128.712 E9.27873
G1 X144.438 Y129.052 E9.2902
G1 X144.378 Y129.378 E9.30122
G1 X144.35 Y129.518 E9.30597
G1 X144.149 Y130.349 E9.33441
G1 X143.994 Y130.892 E9.35319
G1 X143.8 Y131.5 E9.37441
G1 X143.705 Y131.77 E9.38393
G1 X143.446 Y132.435 E9.40767
G1 X143.312 Y132.747 E9.41896
G1 X143.018 Y133.373 E9.44197
G1 X142.794 Y133.813 E9.45839
G1 X142.451 Y134.434 E9.48198
G1 X142.315 Y134.662 E9.49081
G1 X141.912 Y135.288 E9.51558
G1 X141.699 Y135.594 E9.52798
G1 X141.304 Y136.125 E9.54999
G1 X141.005 Y136.502 E9.56599
G1 X140.541 Y137.048 E9.58983
G1 X140.309 Y137.303 E9.60129
G1 X138.291 Y139.453 E9.69937
G1 X136.595 Y141.366 E9.7844
G1 X134.98 Y143.294 E9.86805
G1 X133.356 Y145.351 E9.95522
G1 X132.944 Y145.878 E9.97746
G1 X132.346 Y146.578 E10.00809
G1 X131.689 Y147.223 E10.03871
G1 X130.979 Y147.809 E10.06933
G1 X130.221 Y148.331 E10.09994
G1 X129.421 Y148.786 E10.13055
G1 X128.583 Y149.169 E10.16119
G1 X127.716 Y149.478 E10.19181
G1 X126.826 Y149.711 E10.22241
G1 X125.918 Y149.866 E10.25304
G1 X124.866 Y149.945 E10.28813
G1 X124.478 Y149.955 E10.30104
G1 X124.207 Y149.959 E10.31006
G1 X116.04 Y149.959 E10.58169
G1 X110.958 Y149.958 E10.75072
G1 X110.256 Y149.948 E10.77407
G1 X109.337 Y149.895 E10.80469
G1 X108.426 Y149.762 E10.83531
G1 X107.53 Y149.551 E10.86592
G1 X106.655 Y149.263 E10.89656
G1 X105.809 Y148.9 E10.92718
G1 X104.998 Y148.465 E10.95779
G1 X104.227 Y147.961 E10.98843
G1 X103.503 Y147.393 E11.01903
G1 X102.831 Y146.763 E11.04967
G1 X101.975 Y145.772 E11.09323
G1 X101.837 Y145.591 E11.1008
G1 X100.222 Y143.536 E11.18773
G1 X98.601 Y141.588 E11.27202
G1 X96.919 Y139.681 E11.35659
G1 X95.65 Y138.309 E11.41875
G1 X94.596 Y137.194 E11.46978
G1 X94.159 Y136.702 E11.49167
G1 X93.973 Y136.479 E11.50133
G1 X93.528 Y135.907 E11.52543
G1 X93.26 Y135.537 E11.54062
G1 X92.849 Y134.925 E11.56514
G1 X92.725 Y134.726 E11.57294
G1 X92.403 Y134.173 E11.59423
G1 X92.134 Y133.677 E11.61299
G1 X91.806 Y133.019 E11.63745
G1 X91.729 Y132.85 E11.64362
G1 X91.489 Y132.28 E11.66419
G1 X91.323 Y131.851 E11.67949
G1 X91.093 Y131.191 E11.70274
G1 X90.986 Y130.849 E11.71466
G1 X90.797 Y130.169 E11.73813
G1 X90.729 Y129.887 E11.74778
G1 X90.584 Y129.18 E11.77179
G1 X90.51 Y128.745 E11.78646
G1 X90.42 Y128.09 E11.80845
G1 X90.386 Y127.771 E11.81912
G1 X90.34 Y127.192 E11.83844
G1 X90.327 Y126.939 E11.84687
G1 X90.316 Y126.665 E11.85599
G1 X90.305 Y126.233 E11.87036
G1 X90.302 Y125.963 E11.87934
G1 X90.302 Y104.449 E12.5949
G1 X90.312 Y103.773 E12.61739
G1 X90.341 Y103.132 E12.63873
G1 X90.357 Y102.92 E12.6458
G1 X90.515 Y101.732 E12.68566
G1 X90.548 Y101.559 E12.69152
G1 X90.759 Y100.663 E12.72213
G1 X90.971 Y99.999 E12.74532
G1 X91.053 Y99.768 E12.75347
G1 X91.398 Y98.915 E12.78407
G1 X91.816 Y98.094 E12.81471
G1 X92.304 Y97.314 E12.84532
G1 X92.755 Y96.704 E12.87055
G1 X92.956 Y96.452 E12.88127
G1 X93.561 Y95.758 E12.91189
G0 F6000 X93.863 Y96.021
G1 F1200 X94.514 Y95.396 E12.94191
G1 X95.219 Y94.831 E12.97196
G1 X95.971 Y94.33 E13.00201
G1 X96.764 Y93.898 E13.03205
G1 X97.289 Y93.66 E13.05122
G1 X97.503 Y93.57 E13.05894
G1 X98.35 Y93.257 E13.08897
G1 X99.221 Y93.02 E13.119
G1 X100.11 Y92.861 E13.14903
G1 X101.263 Y92.774 E13.18749
G1 X102.442 Y92.753 E13.22671
G1 X103.477 Y92.753 E13.26113
G1 X104.151 Y92.763 E13.28355
G1 X105.297 Y92.845 E13.32177
G1 X106.034 Y92.94 E13.34648
G1 X108.628 Y93.234 E13.43331
G1 X111.186 Y93.451 E13.5187
G1 X113.716 Y93.593 E13.60298
G1 X116.249 Y93.664 E13.68726
G1 X118.783 Y93.664 E13.77154
G1 X121.348 Y93.591 E13.85689
G1 X123.856 Y93.447 E13.94044
G1 X126.404 Y93.231 E14.02549
G1 X128.915 Y92.945 E14.10955
G1 X129.254 Y92.898 E14.12093
G1 X129.798 Y92.833 E14.13915
G1 X130.593 Y92.772 E14.16567
G1 X130.835 Y92.763 E14.17373
G1 X131.105 Y92.757 E14.18271
G1 X131.487 Y92.753 E14.19542
G1 X132.818 Y92.752 E14.23969
G1 X133.622 Y92.762 E14.26643
G1 X134.524 Y92.814 E14.29648
G1 X135.417 Y92.946 E14.3265
G1 X136.295 Y93.157 E14.35654
G1 X137.012 Y93.391 E14.38162
G1 X137.275 Y93.488 E14.39095
G1 X138.107 Y93.838 E14.42097
G1 X138.906 Y94.26 E14.45102
G1 X139.664 Y94.751 E14.48106
G1 X140.375 Y95.307 E14.51108
G1 X141.002 Y95.89 E14.53956
G1 X141.162 Y96.052 E14.54713
G1 X141.768 Y96.722 E14.57718
G1 X142.312 Y97.443 E14.60722
G1 X142.968 Y98.54 E14.64973
G1 X143.047 Y98.693 E14.65546
G1 X143.426 Y99.513 E14.6855
G1 X143.779 Y100.527 E14.72121
G1 X143.847 Y100.761 E14.72932
G1 X144.06 Y101.638 E14.75933
G1 X144.162 Y102.254 E14.7801
G1 X144.196 Y102.508 E14.78862
G1 X144.278 Y103.469 E14.8207
G1 X144.289 Y103.826 E14.83258
G1 X144.297 Y104.476 E14.8542
G1 X144.298 Y125.669 E15.55909
G1 X144.286 Y126.511 E15.58709
G1 X144.269 Y126.98 E15.6027
G1 X144.247 Y127.345 E15.61487
G1 X144.209 Y127.799 E15.63002
G1 X144.185 Y128.027 E15.63764
G1 X144.101 Y128.645 E15.65839
G1 X144.044 Y128.985 E15.66985
G1 X143.986 Y129.299 E15.68047
G1 X143.958 Y129.439 E15.68522
G1 X143.764 Y130.239 E15.7126
G1 X143.609 Y130.782 E15.73138
G1 X143.423 Y131.367 E15.7518
G1 X143.328 Y131.637 E15.76132
G1 X143.078 Y132.277 E15.78417
G1 X142.944 Y132.589 E15.79547
G1 X142.662 Y133.192 E15.81761
G1 X142.438 Y133.632 E15.83403
G1 X142.108 Y134.229 E15.85672
G1 X141.972 Y134.457 E15.86555
G1 X141.584 Y135.059 E15.88937
G1 X141.371 Y135.365 E15.90177
G1 X140.991 Y135.876 E15.92295
G1 X140.692 Y136.253 E15.93895
G1 X140.245 Y136.779 E15.96191
G1 X140.013 Y137.034 E15.97338
G1 X137.981 Y139.199 E16.07213
G1 X136.307 Y141.087 E16.15606
G1 X134.658 Y143.056 E16.24148
G1 X133.008 Y145.146 E16.33005
G1 X132.629 Y145.631 E16.35052
G1 X132.042 Y146.317 E16.38055
G1 X131.396 Y146.949 E16.41061
G1 X130.697 Y147.521 E16.44065
G1 X129.95 Y148.029 E16.47069
G1 X129.162 Y148.469 E16.50071
G1 X128.337 Y148.837 E16.53076
G1 X127.483 Y149.131 E16.5608
G1 X126.607 Y149.348 E16.59081
G1 X125.714 Y149.487 E16.62087
G1 X124.856 Y149.546 E16.64948
G1 X124.468 Y149.556 E16.66239
G1 X124.207 Y149.559 E16.67107
G1 X116.04 Y149.559 E16.9427
G1 X110.964 Y149.558 E17.11153
G1 X110.262 Y149.548 E17.13488
G1 X109.36 Y149.495 E17.16494
G1 X108.467 Y149.363 E17.19496
G1 X107.589 Y149.152 E17.22499
G1 X106.733 Y148.864 E17.25503
G1 X105.905 Y148.502 E17.28509
G1 X105.113 Y148.068 E17.31513
G1 X104.363 Y147.565 E17.34516
G1 X103.66 Y146.999 E17.37518
G1 X103.01 Y146.372 E17.40522
G1 X102.293 Y145.53 E17.442
G1 X102.126 Y145.311 E17.45116
G1 X100.545 Y143.3 E17.53624
G1 X98.892 Y141.313 E17.62221
G1 X97.23 Y139.429 E17.70577
G1 X95.891 Y137.981 E17.77137
G1 X94.887 Y136.919 E17.81997
G1 X94.466 Y136.445 E17.84106
G1 X94.28 Y136.222 E17.85072
G1 X93.852 Y135.672 E17.8739
G1 X93.584 Y135.302 E17.88909
G1 X93.188 Y134.713 E17.9127
G1 X93.064 Y134.514 E17.9205
G1 X92.755 Y133.983 E17.94093
G1 X92.486 Y133.487 E17.9597
G1 X92.17 Y132.853 E17.98326
G1 X92.093 Y132.684 E17.98944
G1 X91.862 Y132.136 E18.00922
G1 X91.696 Y131.707 E18.02452
G1 X91.474 Y131.072 E18.04689
G1 X91.367 Y130.73 E18.05881
G1 X91.186 Y130.075 E18.08141
G1 X91.118 Y129.793 E18.09106
G1 X90.978 Y129.113 E18.11415
G1 X90.904 Y128.678 E18.12883
G1 X90.817 Y128.048 E18.14998
G1 X90.783 Y127.729 E18.16065
G1 X90.739 Y127.171 E18.17926
G1 X90.726 Y126.918 E18.18769
G1 X90.716 Y126.655 E18.19644
G1 X90.705 Y126.223 E18.21082
G1 X90.702 Y125.963 E18.21947
G1 X90.702 Y104.455 E18.93482
G1 X90.712 Y103.779 E18.95731
G1 X90.74 Y103.162 E18.97785
G1 X90.756 Y102.95 E18.98492
G1 X90.908 Y101.807 E19.02328
G1 X90.941 Y101.634 E19.02913
G1 X91.149 Y100.755 E19.05918
G1 X91.348 Y100.133 E19.0809
G1 X91.43 Y99.902 E19.08905
G1 X91.769 Y99.065 E19.11909
G1 X92.181 Y98.261 E19.14913
G1 X92.663 Y97.497 E19.17918
G1 X93.068 Y96.954 E19.20171
G1 X93.269 Y96.702 E19.21243
G1 X93.863 Y96.021 E19.24249
G1 F1500 E12.74249
G0 F6000 X100.542 Y128.164
G0 X101.021 Y129.27
G0 X101.736 Y130.299
G0 X109.741 Y139.516
G0 X110.245 Y140.02
G0 X115.407 Y140.02
G0 X115.814 Y139.613
G0 X117.45 Y137.059
G1 F1500 E19.24249
G1 F1200 X117.55 Y137.059 E19.24581
G1 X117.55 Y137.959 E19.27575
G1 X117.45 Y137.959 E19.27907
G1 X117.45 Y137.059 E19.30901
G0 F6000 X117.05 Y136.659
G1 F1200 X117.95 Y136.659 E19.33894
G1 X117.95 Y138.359 E19.39548
G1 X117.05 Y138.359 E19.42542
G1 X117.05 Y136.659 E19.48196
G0 F6000 X116.65 Y136.259
G1 F1200 X118.35 Y136.259 E19.5385
G1 X118.35 Y138.759 E19.62165
G1 X116.65 Y138.759 E19.67819
G1 X116.65 Y136.259 E19.76134
G0 F6000 X116.25 Y135.859
G1 F1200 X118.75 Y135.859 E19.84449
G1 X118.75 Y139.159 E19.95425
G1 X116.25 Y139.159 E20.0374
G1 X116.25 Y135.859 E20.14716
G1 F1500 E13.64716
;MESH:Skadis_Universal_Fork_25_30mm.stl
